X: 191
T: Miss Lundie's Jig
R: slip-jig
B: William Shepherd "2nd Collection" 1800 p.19 #1
F: http://imslp.org/wiki/File:PMLP73094-Shepherd_Collections_HMT.pdf
C: William Shepherd (17??-1812)
Z: 2012 John Chambers <jc:trillian.mit.edu>
M: 9/8
L: 1/8
K: A
|:\
A2e e>ce e>ce | A>ce e>ce d2f |\
A2e e>ce e>ce | fdB BcB d2f :|\
(f/g/a).e ece ece | f>ga ece d2f |
(f/g/a).e ece ece | fdB BcB d2f |\
(f/g/a).e ece ece | Tf>ga ece d2f |\
efg agf edc | fdB BcB d2f |]
